X:378
T: IN EINEM KUEHLEN GRUNDE
N: B0453
O: Europa, Mitteleuropa, Deutschland, Norddeutschland
R: Liebes - Lied, Leid, Klage
M: 6/8
L: 1/8
K: F
C | F2FFEF | G2EC2
C | F2FGFG | A4z
A | AGGGAB | c3D2
G | F2FGFG | A4z
A | AGGGAB | c2fdB
G | F2FA2G | F4z

@@@ Tune index: 2181
